img/foundation-icons/fi-social-dribbble.svg

<svg xmlns="http://www.w3.org/2000/svg" width="100" height="100" viewBox="0 0 100 100"><path fill-rule="evenodd" clip-rule="evenodd" d="M50 13.766c-19.979 0-36.234 16.255-36.234 36.233 0 19.98 16.255 36.234 36.234 36.234S86.234 69.98 86.234 50c0-19.979-16.254-36.234-36.234-36.234zm23.957 16.709a30.803 30.803 0 0 1 6.989 19.28c-1.021-.218-11.253-2.291-21.551-.997a95.897 95.897 0 0 0-2.72-6.079c11.443-4.674 16.63-11.32 17.282-12.204zM50 19.097c7.864 0 15.051 2.95 20.517 7.798-.557.794-5.216 7.056-16.221 11.181-5.071-9.318-10.693-16.973-11.548-18.119a30.96 30.96 0 0 1 7.252-.86zm-13.157 2.942c.815 1.118 6.346 8.783 11.474 17.898-14.477 3.845-27.228 3.788-28.612 3.771 2.006-9.603 8.478-17.585 17.138-21.669zM19.05 50.046c0-.316.006-.631.016-.945 1.354.028 16.353.221 31.808-4.404a103.124 103.124 0 0 1 2.509 5.253c-.409.115-.816.237-1.22.368-15.962 5.159-24.456 19.224-25.157 20.424-4.942-5.488-7.956-12.746-7.956-20.696zM50 80.998a30.798 30.798 0 0 1-18.998-6.533c.558-1.139 6.825-13.246 24.281-19.328l.205-.069c4.345 11.291 6.141 20.755 6.602 23.472A30.849 30.849 0 0 1 50 80.998zm17.292-5.294c-.316-1.883-1.963-10.943-6.012-22.067 9.698-1.552 18.219.989 19.278 1.322-1.379 8.613-6.322 16.05-13.266 20.745z"/></svg>

<?xml version="1.0" encoding="utf-8"?>
<!-- Generator: Adobe Illustrator 17.0.0, SVG Export Plug-In . SVG Version: 6.00 Build 0)  -->
<!DOCTYPE svg PUBLIC "-//W3C//DTD SVG 1.1//EN" "http://www.w3.org/Graphics/SVG/1.1/DTD/svg11.dtd">
<svg version="1.1" id="Layer_1" xmlns="http://www.w3.org/2000/svg" xmlns:xlink="http://www.w3.org/1999/xlink" x="0px" y="0px"
	 width="100px" height="100px" viewBox="0 0 100 100" enable-background="new 0 0 100 100" xml:space="preserve">
<g>
	<path fill-rule="evenodd" clip-rule="evenodd" d="M50,13.766c-19.979,0-36.234,16.255-36.234,36.233
		c0,19.98,16.255,36.234,36.234,36.234S86.234,69.98,86.234,50C86.234,30.021,69.98,13.766,50,13.766z M73.957,30.475
		c4.311,5.266,6.92,11.974,6.989,19.28c-1.021-0.218-11.253-2.291-21.551-0.997c-0.217-0.53-0.439-1.062-0.666-1.597
		c-0.644-1.509-1.334-3.01-2.054-4.482C68.118,38.005,73.305,31.359,73.957,30.475z M50,19.097c7.864,0,15.051,2.95,20.517,7.798
		c-0.557,0.794-5.216,7.056-16.221,11.181c-5.071-9.318-10.693-16.973-11.548-18.119C45.075,19.397,47.503,19.097,50,19.097z
		 M36.843,22.039c0.815,1.118,6.346,8.783,11.474,17.898c-14.477,3.845-27.228,3.788-28.612,3.771
		C21.711,34.105,28.183,26.123,36.843,22.039z M19.05,50.046c0-0.316,0.006-0.631,0.016-0.945
		c1.354,0.028,16.353,0.221,31.808-4.404c0.886,1.733,1.732,3.494,2.509,5.253c-0.409,0.115-0.816,0.237-1.22,0.368
		c-15.962,5.159-24.456,19.224-25.157,20.424C22.064,65.254,19.05,57.996,19.05,50.046z M50,80.998
		c-7.155,0-13.75-2.441-18.998-6.533c0.558-1.139,6.825-13.246,24.281-19.328c0.068-0.023,0.136-0.045,0.205-0.069
		c4.345,11.291,6.141,20.755,6.602,23.472C58.374,80.119,54.287,80.998,50,80.998z M67.292,75.704
		c-0.316-1.883-1.963-10.943-6.012-22.067c9.698-1.552,18.219,0.989,19.278,1.322C79.179,63.572,74.236,71.009,67.292,75.704z"/>
</g>
</svg>
